icons/datadog-filled.svg

<svg width="256" height="256" viewBox="0 0 256 256" fill="none" xmlns="http://www.w3.org/2000/svg">
    <g clip-path="url(#clip0_28_30)">
        <path d="M196 0H60C26.8629 0 0 26.8629 0 60V196C0 229.137 26.8629 256 60 256H196C229.137 256 256 229.137 256 196V60C256 26.8629 229.137 0 196 0Z" fill="#632CA6"/>
        <g clip-path="url(#clip1_28_30)">
            <path d="M103.93 72.719C111.882 67.281 122.127 69.4186 120.413 71.0573C117.144 74.1822 121.493 73.2585 121.962 79.0248C122.307 83.2719 120.925 85.6105 119.736 86.9413C117.253 87.2671 114.235 87.8752 110.602 89.0611C108.451 89.7634 106.582 90.5421 104.944 91.3259C104.513 91.0434 104.044 90.6973 103.488 90.2164C97.8788 85.3356 98.0665 76.7295 103.93 72.719ZM151.432 106.337C152.875 105.215 159.433 103.1 165.504 102.38C168.692 102.003 173.236 101.785 174.205 102.329C176.13 103.395 176.13 106.696 174.811 109.744C172.891 114.172 170.178 119.066 167.104 119.468C162.091 120.132 157.351 117.409 151.939 113.353C150.007 111.895 148.82 108.363 151.432 106.337ZM160.579 63.2171C167.982 66.6728 167.013 73.2483 167.218 77.1112C167.274 78.2207 167.256 78.9688 167.163 79.4828C166.138 78.9255 164.518 78.5159 161.949 78.6304C161.198 78.6609 160.468 78.75 159.76 78.8619C157.029 77.3936 155.396 74.5207 153.902 71.467C153.765 71.1846 153.659 70.9327 153.557 70.6884C153.514 70.5764 153.469 70.4568 153.425 70.355C153.408 70.299 153.395 70.2558 153.375 70.2049C152.556 67.5966 153.106 67.0749 153.451 66.2708C153.808 65.4488 155.145 64.7719 153.169 64.0874C152.999 64.0238 152.789 63.9882 152.551 63.9424C153.859 62.3138 157.777 61.9193 160.579 63.2171ZM120.225 141.836C112.25 136.698 103.998 129.328 100.389 125.249C99.7833 124.791 99.8822 122.758 99.8822 122.758C103.138 125.298 116.647 134.983 130.932 139.405C135.971 140.968 143.703 141.558 150.41 137.744C155.535 134.827 161.705 129.746 165.387 124.509L166.062 125.682C166.037 126.46 164.343 130.255 163.48 131.779C165.037 132.677 166.199 132.921 167.931 133.397L179.758 131.547C184.004 124.666 187.047 113.569 183.803 103.006C181.952 96.9471 172.3 84.8827 171.608 84.2185C169.184 81.8799 172.014 72.8463 167.208 62.9907C162.129 52.565 148.894 41.6941 143.145 36.9635C144.839 38.2053 155.272 42.427 160.136 48.3179C160.592 47.7097 160.78 44.5467 161.198 43.7451C157.021 38.2562 156.697 28.4897 156.697 25.8788C156.697 21.0922 154.272 15.6669 154.272 15.6669C154.272 15.6669 158.449 18.9852 159.529 24.7006C160.805 31.4695 163.524 36.8006 167.119 41.3124C173.926 49.8193 180.073 54.1835 183.179 51.0408C186.897 47.2644 179.408 30.3727 169.843 20.9446C158.677 9.94135 155.759 11.3587 149.208 13.705C143.982 15.5753 141.157 30.4669 127.534 30.1717C125.226 29.902 119.282 29.7569 116.343 29.7824C117.875 27.6372 119.188 25.9806 119.188 25.9806C119.188 25.9806 114.618 27.8255 110.723 30.1641L110.424 29.7136C111.738 26.9348 113.15 25.179 113.15 25.179C113.15 25.179 109.498 27.3802 106.166 30.0165C106.772 26.7033 109.067 24.6039 109.067 24.6039C109.067 24.6039 104.454 25.4386 98.5787 31.925C91.9017 33.7572 90.2964 34.9608 84.9761 37.3248C76.3235 35.4316 72.2432 32.3754 68.3532 26.7491C65.3912 22.4511 60.119 21.7996 54.7328 24.0212C46.879 27.2784 36.9458 31.7392 36.9458 31.7392C36.9458 31.7392 40.1842 31.6069 43.5595 31.752C38.9391 33.5078 34.5012 35.9227 34.5012 35.9227C34.5012 35.9227 36.6644 35.8464 39.3347 35.8922C37.4911 37.4292 36.4716 38.162 34.7142 39.3301C30.4894 42.4091 27.0634 45.9666 27.0634 45.9666C27.0634 45.9666 29.9315 44.6561 32.508 43.9207C30.7075 48.0609 27.1369 51.1095 27.7937 56.1785C28.4252 60.8073 34.0879 70.3423 41.3964 76.1951C42.0278 76.704 52.0117 85.9744 59.5434 82.1675C67.07 78.3657 70.0395 74.9787 71.2771 69.785C72.7327 63.8202 71.9034 59.3085 68.7944 46.3611C67.7699 42.0885 65.0996 33.289 63.8113 29.08L64.0979 28.8739C66.5603 34.088 72.862 47.8319 75.4005 57.0641C79.3641 71.4594 78.1266 78.7627 76.3134 81.4397C70.8434 89.514 56.8274 90.5803 50.4521 86.1067C49.4758 101.606 52.9272 108.431 54.0962 111.869C53.5155 115.821 56.0666 123.16 56.0666 123.16C56.0666 123.16 56.3532 119.824 57.5223 118.066C57.8342 121.987 59.8046 126.646 59.8046 126.646C59.8046 126.646 59.6854 123.768 60.5806 121.282C61.8435 123.427 62.7691 123.936 63.9635 125.547C65.1579 129.738 67.5518 132.799 67.5518 132.799C67.5518 132.799 67.1638 130.552 67.3768 128.214C73.2221 133.848 74.2289 142.07 74.8096 148.388C76.4478 165.758 47.5155 179.571 41.9086 190.437C37.6584 196.872 35.1124 207.054 42.3093 213.057C59.7057 227.554 53.0235 231.544 61.7319 237.916C73.6786 246.654 88.6253 242.74 93.7123 235.633C100.795 225.729 98.9769 216.388 96.3446 207.649C94.288 200.817 88.6988 189.465 81.7859 185.073C74.7208 180.581 67.851 179.741 62.0311 180.342L62.5687 179.721C70.9398 178.052 79.6912 178.968 86.0234 183.065C93.2127 187.701 99.7884 195.653 103.227 207.842C107.127 207.285 107.678 207.033 111.248 206.524L103.209 143.731L120.225 141.836ZM124.871 220.543L123.945 211.835L142.024 184.164L162.547 190.18L180.195 160.603L201.349 174.606L217.422 140.782L223.135 202.382L124.871 220.543ZM223.348 128.168L158.753 139.917C157.153 141.986 153.197 145.62 151.295 146.566C143.137 150.689 137.624 149.495 132.859 148.253C129.796 147.475 128.021 147.037 125.477 145.889L109.711 148.06L119.282 228.185L229.937 208.168L223.348 128.168Z" fill="white"/>
        </g>
    </g>
    <defs>
        <clipPath id="clip0_28_30">
            <rect width="256" height="256" fill="white"/>
        </clipPath>
        <clipPath id="clip1_28_30">
            <rect width="203" height="231" fill="white" transform="translate(27 12)"/>
        </clipPath>
    </defs>
</svg>

<svg xmlns="http://www.w3.org/2000/svg" width="256" height="256" fill="none"><g clip-path="url(#clip0_28_30)"><path fill="#632CA6" d="M196 0H60C26.863 0 0 26.863 0 60v136c0 33.137 26.863 60 60 60h136c33.137 0 60-26.863 60-60V60c0-33.137-26.863-60-60-60"/><g clip-path="url(#clip1_28_30)"><path fill="#fff" d="M103.93 72.719c7.952-5.438 18.197-3.3 16.483-1.662-3.269 3.125 1.08 2.201 1.549 7.968.345 4.247-1.037 6.585-2.226 7.916-2.483.326-5.501.934-9.134 2.12a46 46 0 0 0-5.658 2.265 13.5 13.5 0 0 1-1.456-1.11c-5.61-4.88-5.421-13.486.442-17.497m47.502 33.618c1.443-1.122 8.001-3.237 14.072-3.957 3.188-.377 7.732-.595 8.701-.051 1.925 1.066 1.925 4.367.606 7.415-1.92 4.428-4.633 9.322-7.707 9.724-5.013.664-9.753-2.059-15.165-6.115-1.932-1.458-3.119-4.99-.507-7.016m9.147-43.12c7.403 3.456 6.434 10.031 6.639 13.894.056 1.11.038 1.858-.055 2.372-1.025-.558-2.645-.967-5.214-.853-.751.03-1.481.12-2.189.232-2.731-1.468-4.364-4.341-5.858-7.395a15 15 0 0 1-.345-.779c-.043-.112-.088-.231-.132-.333-.017-.056-.03-.1-.05-.15-.819-2.608-.269-3.13.076-3.934.357-.822 1.694-1.5-.282-2.184-.17-.063-.38-.099-.618-.145 1.308-1.628 5.226-2.023 8.028-.725m-40.354 78.619c-7.975-5.138-16.227-12.508-19.836-16.587-.606-.458-.507-2.491-.507-2.491 3.256 2.54 16.765 12.225 31.05 16.647 5.039 1.563 12.771 2.153 19.478-1.661 5.125-2.917 11.295-7.998 14.977-13.235l.675 1.173c-.025.778-1.719 4.573-2.582 6.097 1.557.898 2.719 1.142 4.451 1.618l11.827-1.85c4.246-6.881 7.289-17.978 4.045-28.541-1.851-6.059-11.503-18.123-12.195-18.787-2.424-2.34.406-11.373-4.4-21.228-5.079-10.426-18.314-21.297-24.063-26.027 1.694 1.241 12.127 5.463 16.991 11.354.456-.608.644-3.771 1.062-4.573-4.177-5.489-4.501-15.255-4.501-17.866 0-4.787-2.425-10.212-2.425-10.212s4.177 3.318 5.257 9.034c1.276 6.768 3.995 12.1 7.59 16.611 6.807 8.507 12.954 12.872 16.06 9.729 3.718-3.777-3.771-20.668-13.336-30.096-11.166-11.004-14.084-9.586-20.635-7.24-5.226 1.87-8.051 16.762-21.674 16.467-2.308-.27-8.252-.415-11.191-.39 1.532-2.145 2.845-3.801 2.845-3.801s-4.57 1.845-8.465 4.183l-.299-.45c1.314-2.78 2.726-4.535 2.726-4.535s-3.652 2.201-6.984 4.838c.606-3.314 2.901-5.413 2.901-5.413s-4.613.835-10.488 7.321c-6.677 1.832-8.283 3.036-13.603 5.4-8.653-1.893-12.733-4.95-16.623-10.576-2.962-4.298-8.234-4.95-13.62-2.728-7.854 3.257-17.787 7.718-17.787 7.718s3.238-.132 6.614.013c-4.62 1.756-9.059 4.17-9.059 4.17s2.163-.076 4.834-.03c-1.844 1.537-2.863 2.27-4.62 3.438-4.226 3.08-7.652 6.637-7.652 6.637s2.869-1.31 5.445-2.046c-1.8 4.14-5.371 7.188-4.714 12.258.631 4.628 6.294 14.163 13.602 20.016.632.509 10.616 9.78 18.147 5.973 7.527-3.802 10.497-7.19 11.734-12.383 1.456-5.965.626-10.476-2.483-23.424C67.77 42.09 65.1 33.29 63.811 29.08l.287-.206c2.462 5.214 8.764 18.958 11.302 28.19 3.964 14.395 2.727 21.699.913 24.376-5.47 8.074-19.486 9.14-25.86 4.667-.977 15.499 2.474 22.324 3.643 25.762-.58 3.952 1.97 11.291 1.97 11.291s.287-3.336 1.456-5.094c.312 3.921 2.283 8.58 2.283 8.58s-.12-2.878.776-5.364c1.262 2.145 2.188 2.654 3.383 4.265 1.194 4.191 3.588 7.252 3.588 7.252s-.388-2.247-.175-4.585c5.845 5.634 6.852 13.856 7.433 20.174 1.638 17.37-27.294 31.183-32.901 42.049-4.25 6.435-6.797 16.617.4 22.62 17.397 14.497 10.715 18.487 19.423 24.859 11.947 8.738 26.893 4.824 31.98-2.283 7.083-9.904 5.265-19.245 2.633-27.984-2.057-6.832-7.646-18.184-14.56-22.576-7.064-4.492-13.934-5.332-19.754-4.731l.538-.621c8.37-1.669 17.122-.753 23.454 3.344 7.19 4.636 13.765 12.588 17.204 24.777 3.9-.557 4.451-.809 8.021-1.318l-8.039-62.793zm4.646 78.707-.926-8.708 18.079-27.671 20.523 6.016 17.648-29.577 21.154 14.003 16.073-33.824 5.713 61.6zm98.477-92.375-64.595 11.749c-1.6 2.069-5.556 5.703-7.458 6.649-8.158 4.123-13.671 2.929-18.436 1.687-3.063-.778-4.838-1.216-7.382-2.364l-15.766 2.171 9.571 80.125 110.655-20.017z"/></g></g><defs><clipPath id="clip0_28_30"><path fill="#fff" d="M0 0h256v256H0z"/></clipPath><clipPath id="clip1_28_30"><path fill="#fff" d="M27 12h203v231H27z"/></clipPath></defs></svg>
